!!!COM: Chopin, Frederic
!!!CDT: 1810///-1849///
!!!OTL: Mazurka in A Minor, Op. 7, No. 2
!!!OPS: Op. 7
!!!ONM: No. 2
!!!OMD: Vivo, ma non troppo
!!!ODT: 1830///-1832///
!!!PDT: 1832///-1835///
!!!PPP: Leipzig, 1832; Paris and London, 1833; no.1, Warsaw, 1835  
!!!ODE: Mr. Johns of nouvelle-Orleans
**kern	**kern	**dynam
*staff2	*staff1	*staff1/2
*Ipiano	*Ipiano	*Ipiano
*>[A,B,B1,B,B2,C,D,D1,D,D2,A,B,B2]	*>[A,B,B1,B,B2,C,D,D1,D,D2,A,B,B2]	*>[A,B,B1,B,B2,C,D,D1,D,D2,A,B,B2]
*>norep[A,B,B2,C,D,D2,A,B,B2]	*>norep[A,B,B2,C,D,D2,A,B,B2]	*>norep[A,B,B2,C,D,D2,A,B,B2]
*>A	*>A	*>A
*clefF4	*clefG2	*clefG2
*k[]	*k[]	*k[]
*a:	*a:	*a:
*M3/4	*M3/4	*M3/4
*MM160	*MM160	*MM160
4r	(4ee	p
=1	=1	=1
4r	8.ffL	>
.	16eeJk	)
(4A' 4d' 4f'	4dd	]
4A' 4d' 4f')	4ff	.
=2	=2	=2
4r	2ff^	.
(4A' 4c' 4f'	.	.
4A' 4c' 4e')	4ee)	.
=3	=3	=3
4r	(24ddLL	<
.	24ee	(
.	24ddJ	(
.	8cc#J	[
(4E' 4G#' 4d'	8ddL	.
.	8dd#	.
4E' 4G#' 4d')	8ee	>
.	8bJ	]
=4	=4	=4
4r	2ddn	>
!LO:S:a	!	!
(4AA	.	)
4E 4c)	4cc)	]
=5	=5	=5
4r	12aL	.
.	12b	.
.	12aJ	.
!	!LO:TX:b:i:t=cresc.	!
!	!LO:S:a	!
(4E 4c	(4g#	<
4AA)	4a	.
=6	=6	=6
4r	4b')	.
4E 4Gn (4B	2ee^	.
4BB)	.	.
=7	=7	=7
4r	(8bL	f
!	!LO:TX:i:b:t=stretto	!
.	8gn	.
4BB 4G 4B	8e	.
.	8bJ	.
4BB 4F# 4B	4d#	<
=8	=8	=8
4E 4G 4B	2e)	[
4EE	.	.
4r	(4ee	p
=9	=9	=9
4r	8.ffL	<
.	16eeJk	[
4A' 4d' 4f'	4dd	.
4A' 4d' 4f'	4ff	.
=10	=10	=10
4r	2ff^	.
4A' 4c' (4f'	.	.
4A' 4c' 4e')	4ee)	.
=11	=11	=11
4r	(24ddLL	<
.	24ee	(
.	24ddJ	(
.	8cc#J	[
!	!LO:TX:b:i:t=cresc.	!
(4E' 4G#' 4d'	8ddL	.
.	8dd#	.
4E' 4G#' 4d')	8ee	.
.	8bJ	.
.	(8b/q	.
=12	=12	=12
4r	2ddn^)	>
4F' 4A' (4d'	.	)
4F' 4A' 4c')	4cc)	]
=13	=13	=13
!	!LO:TX:b:i:t=poco rall.	!
!	!LO:S:a	!
4r	(12aL	.
.	12b-	.
.	12aJ	.
4F 4c 4e-	4g	<
4F 4c 4e-	4a	[
=14	=14	=14
*	*^	*
2B-	4b-	(4d	.
.	4dd)	4f)	.
4r;	4r;	4r;yy	.
=15	=15	=15	=15
!	!LO:TX:a:i:t=a tempo	!	!
4r	8.a^L	4ryy	.
.	16g#Jk	.	.
!	!	!LO:S:a	!
(4E' 4Bn'	4e	(4d	.
4E' 4B')	4g#	4d	.
=16	=16	=16	=16
4AA 4E	2a)	4c	.
!LO:TX:a:i:t=Fine	!	!	!
4AAA	.	4r	.
*	*v	*v	*
=:|!|:	=:|!|:	=:|!|:
*>B	*>B	*>B
4r	(4b	p
=17	=17	=17
4r	8ccL	.
.	8ddJ	.
(4A-' 4c' 4f#'	4ee-)	.
4A-' 4c' 4f#')	(8.ee-L	<
.	16ffnJk	[
=18	=18	=18
4r	2ee-^	.
4G' 4c' (4f#'	.	.
4G' 4B' 4g')	4dd)	.
=19	=19	=19
4r	(8ccL	<
.	8ddJ	(
4A- 4c 4f#	4ee-)	[
!	!LO:TX:i:b:t=cresc.	!
4A- 4c 4f#	(8.ee-L	.
.	16ffnJk	.
=20	=20	=20
4r	2ee-^	.
4A-' 4c-' (4fn'	.	.
4A-' 4B-' 4f')	4dd)	.
=21	=21	=21
4r	(2bb-	>
4G 4B- 4f	.	)
4G 4B- 4en	4cc#	)
.	.	]
=22	=22	=22
4r	2aa	>
4G 4A 4e	.	)
4F# 4A 4e-	4ccn	)
.	.	]
=23	=23	=23
4r	2aa-	>
4Fn 4A- 4e-	.	)
4F 4A- 4d	4bn	)
.	.	]
=24	=24	=24
4r	4.gg)	>
4En 4G 4d	.	)
.	(8b-L	]
(4E 4G 4c#	8an	<
.	8eeJ	(
.	.	[
=25	=25	=25
4D 4F 4d)	8ffL	.
.	8eeJ	.
4A' 4d' (4f'	4dd	.
4A' 4d' 4f')	4ff)	.
=26	=26	=26
4r	(2ff^	.
4A' 4c' (4f'	.	.
4A' 4c' 4e')	4ee)	.
=27	=27	=27
4r	(24ddLL	<
.	24ee	(
.	24ddJ	(
.	8cc#J	(
(4E' 4G#' 4d'	8ddL	(
.	8dd#	[
4E' 4G#' 4d')	8ee	.
.	8bJ	.
=28	=28	=28
4r	2ddn	>
4F' 4A' (4d'	.	)
4F' 4A' 4c')	4cc)	]
=29	=29	=29
!	!LO:TX:b:i:t=poco rall.	!
4r	12aL	.
.	12b-	.
.	12aJ	.
4F 4c 4e-	4g	<
4F 4c 4e-	4a	(
.	.	[
=30	=30	=30
*	*^	*
2B-	(4b-	(4d	.
.	4dd)	4f)	.
4r;	4r;	4r;yy	.
=31	=31	=31	=31
!	!LO:TX:a:i:t=a tempo	!	!
4r	8.aL	4r	>
.	16g#Jk	.	]
4E 4Bn	4e	4d	.
4E 4B	4g#	4d	.
*	*v	*v	*
=32	=32	=32
*>B1	*>B1	*>B1
*	*^	*
4AA 4E	2a	4c	.
4AAA	.	4r	.
*	*v	*v	*
=33:|!	=33:|!	=33:|!
*>B2	*>B2	*>B2
*	*^	*
4r	2.a	4r	.
4AA 4A	.	(4c#' 4e'	.
[4AA [4A	.	4c#') 4e'	.
*	*v	*v	*
=34||	=34||	=34||
*>C	*>C	*>C
*k[f#c#g#]	*k[f#c#g#]	*k[f#c#g#]
*	*^	*
!	!LO:TX:i:b:t=dolce	!	!
!LO:TX:i:b:t=sempre legato	!	!	!
4AA] (4A]	8cc#L	4gn	.
.	16r	.	.
.	16cc#Jk	.	>
4D)	(4dd	4f#	)
(4DD	4b	4fn	]
=35	=35	=35	=35
4EE	8.g#XL	4d	.
.	16eJk	.	.
4AA)	4.c# 4.a)	2r	.
(4E	.	.	.
.	8g# 8b	.	.
=36	=36	=36	=36
4A	8.cc#L	4gn	.
.	16eeJk	.	.
4D)	4dd	4f#	<
(4DD	4b	4fn	[
=37	=37	=37	=37
4EE	12g#XL	4d	<
.	12f#X	.	(
.	12eJ	.	[
4AA)	4.c# 4.a	2r	.
(4E	.	.	.
.	8g# 8b	.	.
*	*v	*v	*
=38	=38	=38
!	!LO:TX:b:i:t=scherz.	!
!	!LO:S:a	!
4A	12gn' 12cc#'L	.
.	12g' 12cc#'	.
.	12g' 12cc#'J	.
4D)	4f# 4dd	.
(4DD	4fn^ 4b^	.
=39	=39	=39
4EE	12d' 12g#X'L	.
.	12d' 12f#X'	.
.	12d' 12e'J	.
4AA)	4.c# 4.a	.
(4E	.	.
.	8g# 8b	.
=40	=40	=40
4A	12gn' 12cc#'L	<
.	12g' 12dd'	(
.	12g' 12ee'J	[
4D)	4f# 4dd	.
!LO:S:a	!	!
(4DD	4fn^ 4b^	.
=41	=41	=41
4EE	12d' 12g#X'L	.
.	12d' 12f#X'	.
.	12d' 12e'J	.
4AA	2c# 2a	<
4A)	.	(
.	.	[
=42!|:	=42!|:	=42!|:
*>D	*>D	*>D
*^	*	*
8c#L	2.F#	8a 8cc#L	f
16r	.	16r	>
16c#Jk	.	16a 16cc#Jk	)
4d'	.	4b' 4dd'	]
4B'	.	4g#' 4b'	.
=43	=43	=43	=43
(12c#L	2.F#	12a^ 12cc#^L	.
12B	.	12g# 12b	.
12AJ	.	12f# 12aJ	.
4d)	.	4b' 4dd'	.
4B'	.	4g#' 4b'	.
=44	=44	=44	=44
8c#L	2.F#	8a\ 8cc#\L	.
16r	.	16r	.
16c#Jk	.	16a\ 16cc#\Jk	.
4d'	.	4b' 4dd'	.
4B'	.	4g#' 4b'	.
=45	=45	=45	=45
12c#L	4F#	12a 12cc#L	.
12B	.	12g# 12b	.
12AJ	.	12f# 12aJ	.
*ped	*	*	*
4FF# 4F#	2ryy	4ff# 4fff#	fz
4FF# 4F#	.	4ff# 4fff#	fz
=46	=46	=46	=46
8c#L	2.F#	8a\ 8cc#\L	.
*Xped	*	*	*
16r	.	16r	.
16c#Jk	.	16a\ 16cc#\Jk	.
4d'	.	4b' 4dd'	.
4B'	.	4g#' 4b'	.
=47	=47	=47	=47
12c#L	[2.F#	12a 12cc#L	.
12B	.	12g# 12b	.
12AJ	.	12f# 12aJ	.
4d'	.	4b' 4dd'	.
4B'	.	4g#' 4b'	.
=48	=48	=48	=48
*	*	*^	*
!	!	!LO:TX:a:i:t=riten.	!	!
8c#L	4F#]	8cc#L	4a	<
[8BJ	.	8dd#J	.	[
2B]	[2E	2ee	2g#	.
=49	=49	=49	=49	=49
8c#L	4E]	(8cc#L	4a	<
[8BJ	.	8dd#J	.	(
!	!	!LO:S:b	!	!
.	.	(8ff#/q	.	(
2B]	2E	4.ee)	2g#	[
.	.	8ddn)	.	.
*v	*v	*	*	*
=50	=50	=50	=50
!	!LO:TX:a:i:t=a tempo	!	!
!LO:TX:a:i:t=dolce	!	!	!
(4A	8cc#L	4gn	p
.	16r	.	.
.	16cc#Jk	.	.
4D)	(4dd	4f#	.
(4DD	4b	4fn	.
=51	=51	=51	=51
4EE	8.g#XL	4d	.
.	16eJk	.	.
4AA)	4.c# 4.a)	2r	.
(4E	.	.	.
.	8g# 8b	.	.
=52	=52	=52	=52
4A	(8.cc#L	4gn	.
.	16eeJk)	.	.
4D)	4dd'	4f#	.
(4DD	4b'	4fn	.
=53	=53	=53	=53
4EE	12g#XL	4d	<
.	12f#X	.	(
.	12eJ	.	(
4AA)	4.c# 4.a	2r	[
(4E	.	.	.
.	8g# 8b	.	.
*	*v	*v	*
=54	=54	=54
!	!LO:TX:b:i:t=scherz.	!
4A	12gn 12cc#L	.
.	12g 12cc#	.
.	12g 12cc#J	.
4D)	4f# 4dd	.
(4DD	4fn^ 4b^	.
=55	=55	=55
4EE	12d' 12g#X'L	.
.	12d' 12f#X'	.
.	12d' 12e'J	.
4AA)	4.c# 4.a	<
(4E	.	(
.	8g# 8b	[
=56	=56	=56
4A	12gn' 12cc#'L	.
.	12g' 12dd'	.
.	12g' 12ee'J	.
4D)	4f# 4dd	.
(4DD	4fn^ 4b^	.
=57	=57	=57
*>D1	*>D1	*>D1
4EE	12d' 12g#'L	.
.	12d' 12f#X'	.
.	12d' 12e'J	.
4AA)	2c# 2a	<
4A	.	(
.	.	[
=58:|!	=58:|!	=58:|!
*>D2	*>D2	*>D2
!LO:TX:b:i:t=D.C. al Fine	!	!
(4EE	12d' 12g#X'L	<
.	12d' 12f#X'	(
.	12d' 12e'J	(
4AAA) 4AA	4c# 4a	[
==	==	==
*-	*-	*-
!!!SMS: Mikuli edition, G. Schirmer (1894-1898)
!!!ENC: Craig Stuart Sapp
!!!END: 2005/02/20/
!!!EEV: 2017/01/05/
